X:18455
T:Waltz. CJF.024
M:3/8
L:1/16
Q:50
C: 
S: C.J.Fox MS, 1829/33, Beverley,E.Yorks.
R:Waltz
O:England
A:East Yorkshire
B:Kidson Coll.Mitchell Lib.M1805
Z:P J Headford 2000
K:D
fe|d2dcd2|d'4f2|g2gab2|e4dc|c2cBc2|a4((3gec)|dcdfec|d4:|:!fe|dcdcdc|
defgab|a^gagag|a4Bc|dcdcdc|defgab|abc'd'e'c'|d'4:|:!fg|a<d'f<ad<f|A4f2|
g<be<gf<a|g<be<gf<a|a<d'f<ad<f|A4f2|e<gc<eA<c|d4:|:!f2|fgfgfg|fgfedc|B^A
Bcdc|
B2f2f2|!fgfgfg|fgfedc|B^ABcdc|B4fg|a<d'f<ad<f|A4f2|!g<be<gf<a|g<be<gf<a|
a<d'f<ad<f|A4f2|e<gc<eA<c|d4:|]


